X: 4065
T: Blessings Of Silver, The
R: reel
M: 4/4
K: Aminor
|:cecA EAAG|E2 DG EGDG|EA A2 cdea|a^gea ^gedB|
ced=f edcB|(3ABc BA GED=F|EA A2 cdea|gedB A3:|
|:ea a2 aged|(3Bcd ef g3d|ea a2 g2 ef|gedB cAAf|
ea a2 aged|(3Bcd ef g3d|eage d2 ef|gedB cA A2:|

